X:1
T:Pilot, 77.77.77
T:Pilot, 77.77.77
T:John Edgar Gould, 1871
T:Public Domain Courtesy of the Cyber Hymnal™
C:John Edgar Gould, 1871
Z:Public Domain
Z:Courtesy of the Cyber Hymnal™
%%score ( 1 2 ) ( 3 4 )
L:1/8
Q:1/4=93
M:3/4
K:Bb
V:1 treble 
V:2 treble 
V:3 bass 
V:4 bass 
V:1
 [Fd]>[Ec] | [DB]3 [DA] (3(c{c'}B[EG]) | [DF]4 [Fe]>[Fd] | [Gd]3 [Gc] [FB][EA] | [DB]4 [Ec]>[Ec] | %5
 [Ec]3 [EF] [EG][EF] | B4 [Ec]>[Ec] | [Ec]3 [EF] [EG][EF] | B4 [Fd]>[Ec] | [DB]3 [DA] (3(c{c'}BG) | %10
 [DF]4 [Fe]>[Fd] | [Gd]3 [Gc] [FB][EA] | [DB]4 |] %13
V:2
 x2 | x4 E2 | x6 | x6 | x6 | x6 | (DG F2) x2 | x6 | (DE D2) x2 | x4 E2 | x6 | x6 | x4 |] %13
V:3
 [B,,F,]>[B,,F,] | [B,,F,]3 [B,,^F,] (3:2:2([B,,G,]2 [B,,B,]) | [B,,B,]4 [C,A,]>[D,B,] | %3
 [E,B,]3 [E,E] [F,D][F,C] | [B,,B,]4 [F,A,]>[F,A,] | [F,A,]3 [F,A,] [F,B,][F,A,] | %6
 (B,E D2) [F,A,]>[F,A,] | [F,A,]3 [F,A,] [F,B,][F,A,] | (B,G, F,2) [B,,F,]>[B,,F,] | %9
 [B,,F,]3 [B,,^F,] (3:2:2[B,,G,]2 [B,,B,] | [B,,B,]4 [C,A,]>[D,B,] | [E,B,]3 [E,E] [F,D][F,C] | %12
 [B,,B,]4 |] %13
V:4
 x2 | x6 | x6 | x6 | x6 | x6 | B,,4 x2 | x6 | B,,4 x2 | x6 | x6 | x6 | x4 |] %13

